X:1
T:The Old Parson’s Story
T:The Old Parson’s Story
T:Edwin Othello Excell, 1884
T:Eugene Judson Hall, 1881, alt.
T:Public Domain Courtesy of the Cyber Hymnal™
T:Public Domain Courtesy of the Cyber Hymnal™
C:Edwin Othello Excell, 1884
Z:Public Domain
Z:Courtesy of the Cyber Hymnal™
%%score 1 2 3
L:1/8
Q:1/4=85
M:6/8
K:Ab
V:1 treble 
V:2 treble 
V:3 bass 
V:1
 E | c>cc B>cB | B A4 A | A>GA B>EB | A3- A2 E | c>cc B>cB | B A4 A | A>GA B>EB | A3- A2 A | %9
w: 1.~They|say I am old and for-|get- ful, My|style is as slow as a|snail; * My|doc- trines are all out of|fa- shion, My|mind is be- gin- ning to|fail; * They|
w: 2.~For|fif- ty long years I’ve been|preach- ing, I’ve|stu- died my old Bi- ble|well; * I|al- ways have felt it my|du- ty To|show them the hor- rors of|hell; * Perhaps|
w: 3.~I’ve|seen ma- ny tri- als and|chang- es, I’ve|fought a good fight a- gainst|wrong; * The|gals have grown up to be|wo- men, The|boys have got man- ly and|strong; * The|
w: 4.~My|flock has been al- ways com-|plain- ing, The|church was not right- ly ar-|ranged, * They|vot- ed to have a high|stee- ple, The|gal- le- ry had to be|changed; * They|
w: 5.~And|now, to my pain and my|sor- row, They|say, “the old par- son must|go”; * I|know I am child- ish and|fee- ble, My|steps are un- stea- dy and|slow. * They|
w: 6.~I’ll|try to be- lieve that what|hap- pens Will|al- ways come out for the|best; * They|tell me my la- bor is|end- ed, ’Tis|time I was tak- ing a|rest; * I’ve|
 A>AA G2 F | F E4 A | c>cc c>BA | B3- B2 E | c>cc B>cB | B A4 A | A>GA B>EB | A3- A2 |] %17
w: want a more flow- ery|preach- er, More|full of for- give- ness and|love, * To|talk to them less a- bout|brim- stone, And|more of the man- sions a-|bove. *|
w: I’ve been wrong in my|no- tions, I’ve|fol- lowed the Scrip- tures, I|know, * And|ne- ver have know- ing- ly|bro- ken The|vows that I took long a-|go. *|
w: hon- est old deacons have|van- ished, Their|pure lives have come to a|close; * They|sleep in the si- lent old|church- yard, Where|soon I shall lie in re-|pose. *|
w: built up a fan- ciful|ves- try, They|bought the best or- gan in|town; * They|chopped the old pews in- to|kind- ling, And|tum- bled the tall pul- pit|down. *|
w: want “a more spir- it-|ed speak- er,”|I’m told the new dea- cons|have * said,|“To dance round the plat- form|and hol- ler,|And wake up the souls that|are *|
w: lit- tle of com- fort~or|rich- es, I’m|cer- tain my con- science is|clear; * And|when in the church- yard I’m|sleep- ing, Per-|haps they may wish I was|here. *|
V:2
 z | [CE]3 [B,D]3 | [B,D] [A,C]4 [A,C] | [A,C]>[G,B,][A,C] [B,D]3 | [A,C]3- [A,C]2 z | %5
 [CE]3 [B,D]3 | [B,D] [A,C]4 [A,C] | [A,C]>[G,B,][A,C] [B,D]3 | [A,C]3- [A,C]2 z | %9
 [A,F]3 [G,E]2 [F,D] | [A,D] [A,C]4 [A,C] | [CE]3 [CE]>[B,D][A,C] | [G,DE]3- [G,DE]2 z | %13
 [CE]3 [B,D]3 | [B,D] [A,C]4 [A,C] | [A,C]>[G,B,][A,C] [B,D]3 | [A,C]3- [A,C]2 |] %17
V:3
 z | [A,,E,]3 [A,,E,]3 | [A,,E,] [A,,E,]4 [A,,E,] | [E,,E,]3 [E,,E,]3 | [A,,E,]3- [A,,E,]2 z | %5
 [A,,E,]3 [A,,E,]3 | [A,,E,] [A,,E,]4 [A,,E,] | [E,,E,]3 [E,,E,]3 | [A,,E,]3- [A,,E,]2 z | %9
 [D,,D,]3 [D,,D,]2 [D,,D,] | [A,,F,] [A,,E,]4 [A,,E,] | [A,,E,]3 [A,,E,]3 | [E,,E,]3- [E,,E,]2 z | %13
 [A,,E,]3 [A,,E,]3 | [A,,E,] [A,,E,]4 [A,,E,] | [E,,E,]3 [E,,E,]3 | [A,,E,]3- [A,,E,]2 |] %17

